X:2286
T:Go to the Well for Water.
O:england
M:6/8
L:1/8
C:Trad
R:Slide
K:D
A2f A2f|A2f fed|B2g B2g|B2g gfe|ccc BcB|Ace a3|bag edc|1 d3 dcB:|2 d3 d2:|
e |fff fed|eee edc|ddd dcB|ccc cBA|GBB GBB|FAA FAA|EEE e2d|cBc d2 :|


